src/Code Defender Launch/SVG/visibility.svg

<svg height="500" viewBox="0 0 500 500" width="500" xmlns="http://www.w3.org/2000/svg"><g fill="none" fill-rule="evenodd" transform="translate(24 12)"><g stroke-linecap="round" stroke-linejoin="round"><path d="m352 235c0 64.620044-52.382747 117-117.001798 117-64.615455 0-116.998202-52.379956-116.998202-117s52.382747-117 116.998202-117c64.619051 0 117.001798 52.379956 117.001798 117z" stroke="#ec1c24" stroke-width="2"/><path d="m236 118v-50" stroke="#ec1c24" stroke-width="2"/><path d="m270 34.5c0 19.0527851-15.447215 34.5-34.5 34.5s-34.5-15.4472149-34.5-34.5 15.447215-34.5 34.5-34.5 34.5 15.4472149 34.5 34.5z" stroke="#ec1c24" stroke-width="2"/><path d="m352 236h50" stroke="#ec1c24" stroke-width="2"/><path d="m441.5 270c-19.052785 0-34.5-15.446395-34.5-34.50183 0-19.051775 15.447215-34.49817 34.5-34.49817s34.5 15.446395 34.5 34.49817c0 19.055435-15.447215 34.50183-34.5 34.50183z" stroke="#ec1c24" stroke-width="2"/><path d="m240 352v50" stroke="#ec1c24" stroke-width="2"/><path d="m206 441.5c0-19.052785 15.446395-34.5 34.49817-34.5 19.055435 0 34.50183 15.447215 34.50183 34.5s-15.446395 34.5-34.50183 34.5c-19.051775 0-34.49817-15.447215-34.49817-34.5z" stroke="#ec1c24" stroke-width="2"/><path d="m118 236h-50" stroke="#ec1c24" stroke-width="2"/><path d="m34.4981699 201c19.0554347 0 34.5018301 15.446395 34.5018301 34.49817 0 19.055435-15.4463954 34.50183-34.5018301 34.50183-19.0517745 0-34.4981699-15.446395-34.4981699-34.50183 0-19.051775 15.4463954-34.49817 34.4981699-34.49817z" stroke="#ec1c24" stroke-width="2"/><path d="m114 114-23-23" stroke="#0f222e" stroke-width="2"/><path d="m90.8513335 61.1509267c8.198222 8.2012357 8.198222 21.4969109 0 29.6981466-8.2017528 8.2012356-21.5017969 8.2012356-29.700019 0-8.2017527-8.2012357-8.2017527-21.4969109 0-29.6981466 8.1982221-8.2012356 21.4982662-8.2012356 29.700019 0z" stroke="#0f222e" stroke-width="2"/><path d="m358 114 23-23" stroke="#0f222e" stroke-width="2"/><path d="m410.851333 90.8513335c-8.201752 8.198222-21.501796 8.198222-29.700018 0-8.201753-8.2017528-8.201753-21.5017969 0-29.700019 8.198222-8.2017527 21.498266-8.2017527 29.700018 0 8.198223 8.1982221 8.198223 21.4982662 0 29.700019z" stroke="#0f222e" stroke-width="2"/><path d="m358 352 23 23" stroke="#0f222e" stroke-width="2"/><path d="m377.150927 406.851333c-8.201236-8.201752-8.201236-21.501796 0-29.700018 8.201235-8.201753 21.496911-8.201753 29.698146 0 8.201236 8.198222 8.201236 21.498266 0 29.700018-8.201235 8.198223-21.496911 8.198223-29.698146 0z" stroke="#0f222e" stroke-width="2"/><path d="m114 352-23 23" stroke="#0f222e" stroke-width="2"/><path d="m61.1486665 377.148667c8.2017528-8.198223 21.5017969-8.198223 29.700019 0 8.2017527 8.201752 8.2017527 21.501796 0 29.700018-8.1982221 8.201753-21.4982662 8.201753-29.700019 0-8.198222-8.198222-8.198222-21.498266 0-29.700018z" stroke="#0f222e" stroke-width="2"/><path d="m165 219s66.959018-71.569737 151-.6425" stroke="#0f222e" stroke-width="4"/><path d="m193 275s40.515403 20.25 95 0" stroke="#0f222e" stroke-width="2"/></g><path d="m222.139611 219.603946c-4.567639 0-8.229001-3.667959-8.229001-8.239302 0-4.535063 3.661362-8.195766 8.229001-8.195766 4.531388 0 8.196375 3.660703 8.196375 8.195766 0 4.571343-3.664987 8.239302-8.196375 8.239302m16.856764-31.603946c-22.62069 0-40.996375 9.324089-40.996375 31.999404 0 22.642662 18.375685 41.000596 40.996375 41.000596 22.656941 0 41.003625-18.357934 41.003625-41.000596 0-22.675315-18.346684-31.999404-41.003625-31.999404" fill="#231f20"/></g></svg>

<?xml version="1.0" encoding="UTF-8"?>
<svg width="500px" height="500px" viewBox="0 0 500 500" version="1.1" xmlns="http://www.w3.org/2000/svg" xmlns:xlink="http://www.w3.org/1999/xlink">
    <!-- Generator: Sketch 55.2 (78181) - https://sketchapp.com -->
    <title>Artboard Copy 6</title>
    <desc>Created with Sketch.</desc>
    <g id="Artboard-Copy-6" stroke="none" stroke-width="1" fill="none" fill-rule="evenodd">
        <g id="Group-41" transform="translate(24.000000, 12.000000)">
            <path d="M352,235 C352,299.620044 299.617253,352 234.998202,352 C170.382747,352 118,299.620044 118,235 C118,170.379956 170.382747,118 234.998202,118 C299.617253,118 352,170.379956 352,235 Z" id="Stroke-1" stroke="#EC1C24" stroke-width="2" stroke-linecap="round" stroke-linejoin="round"></path>
            <path d="M236,118 L236,68" id="Stroke-3" stroke="#EC1C24" stroke-width="2" stroke-linecap="round" stroke-linejoin="round"></path>
            <path d="M270,34.5 C270,53.5527851 254.552785,69 235.5,69 C216.447215,69 201,53.5527851 201,34.5 C201,15.4472149 216.447215,0 235.5,0 C254.552785,0 270,15.4472149 270,34.5 Z" id="Stroke-5" stroke="#EC1C24" stroke-width="2" stroke-linecap="round" stroke-linejoin="round"></path>
            <path d="M352,236 L402,236" id="Stroke-7" stroke="#EC1C24" stroke-width="2" stroke-linecap="round" stroke-linejoin="round"></path>
            <path d="M441.5,270 C422.447215,270 407,254.553605 407,235.49817 C407,216.446395 422.447215,201 441.5,201 C460.552785,201 476,216.446395 476,235.49817 C476,254.553605 460.552785,270 441.5,270 Z" id="Stroke-9" stroke="#EC1C24" stroke-width="2" stroke-linecap="round" stroke-linejoin="round"></path>
            <path d="M240,352 L240,402" id="Stroke-11" stroke="#EC1C24" stroke-width="2" stroke-linecap="round" stroke-linejoin="round"></path>
            <path d="M206,441.5 C206,422.447215 221.446395,407 240.49817,407 C259.553605,407 275,422.447215 275,441.5 C275,460.552785 259.553605,476 240.49817,476 C221.446395,476 206,460.552785 206,441.5 Z" id="Stroke-13" stroke="#EC1C24" stroke-width="2" stroke-linecap="round" stroke-linejoin="round"></path>
            <path d="M118,236 L68,236" id="Stroke-15" stroke="#EC1C24" stroke-width="2" stroke-linecap="round" stroke-linejoin="round"></path>
            <path d="M34.4981699,201 C53.5536046,201 69,216.446395 69,235.49817 C69,254.553605 53.5536046,270 34.4981699,270 C15.4463954,270 0,254.553605 0,235.49817 C0,216.446395 15.4463954,201 34.4981699,201 Z" id="Stroke-17" stroke="#EC1C24" stroke-width="2" stroke-linecap="round" stroke-linejoin="round"></path>
            <path d="M114,114 L91,91" id="Stroke-19" stroke="#0F222E" stroke-width="2" stroke-linecap="round" stroke-linejoin="round"></path>
            <path d="M90.8513335,61.1509267 C99.0495555,69.3521624 99.0495555,82.6478376 90.8513335,90.8490733 C82.6495807,99.0503089 69.3495366,99.0503089 61.1513145,90.8490733 C52.9495618,82.6478376 52.9495618,69.3521624 61.1513145,61.1509267 C69.3495366,52.9496911 82.6495807,52.9496911 90.8513335,61.1509267 Z" id="Stroke-21" stroke="#0F222E" stroke-width="2" stroke-linecap="round" stroke-linejoin="round"></path>
            <path d="M358,114 L381,91" id="Stroke-23" stroke="#0F222E" stroke-width="2" stroke-linecap="round" stroke-linejoin="round"></path>
            <path d="M410.851333,90.8513335 C402.649581,99.0495555 389.349537,99.0495555 381.151315,90.8513335 C372.949562,82.6495807 372.949562,69.3495366 381.151315,61.1513145 C389.349537,52.9495618 402.649581,52.9495618 410.851333,61.1513145 C419.049556,69.3495366 419.049556,82.6495807 410.851333,90.8513335 Z" id="Stroke-25" stroke="#0F222E" stroke-width="2" stroke-linecap="round" stroke-linejoin="round"></path>
            <path d="M358,352 L381,375" id="Stroke-27" stroke="#0F222E" stroke-width="2" stroke-linecap="round" stroke-linejoin="round"></path>
            <path d="M377.150927,406.851333 C368.949691,398.649581 368.949691,385.349537 377.150927,377.151315 C385.352162,368.949562 398.647838,368.949562 406.849073,377.151315 C415.050309,385.349537 415.050309,398.649581 406.849073,406.851333 C398.647838,415.049556 385.352162,415.049556 377.150927,406.851333 Z" id="Stroke-29" stroke="#0F222E" stroke-width="2" stroke-linecap="round" stroke-linejoin="round"></path>
            <path d="M114,352 L91,375" id="Stroke-31" stroke="#0F222E" stroke-width="2" stroke-linecap="round" stroke-linejoin="round"></path>
            <path d="M61.1486665,377.148667 C69.3504193,368.950444 82.6504634,368.950444 90.8486855,377.148667 C99.0504382,385.350419 99.0504382,398.650463 90.8486855,406.848685 C82.6504634,415.050438 69.3504193,415.050438 61.1486665,406.848685 C52.9504445,398.650463 52.9504445,385.350419 61.1486665,377.148667 Z" id="Stroke-33" stroke="#0F222E" stroke-width="2" stroke-linecap="round" stroke-linejoin="round"></path>
            <path d="M165,219 C165,219 231.959018,147.430263 316,218.3575" id="Stroke-35" stroke="#0F222E" stroke-width="4" stroke-linecap="round" stroke-linejoin="round"></path>
            <path d="M193,275 C193,275 233.515403,295.25 288,275" id="Stroke-37" stroke="#0F222E" stroke-width="2" stroke-linecap="round" stroke-linejoin="round"></path>
            <path d="M222.139611,219.603946 C217.571972,219.603946 213.91061,215.935987 213.91061,211.364644 C213.91061,206.829581 217.571972,203.168878 222.139611,203.168878 C226.670999,203.168878 230.335986,206.829581 230.335986,211.364644 C230.335986,215.935987 226.670999,219.603946 222.139611,219.603946 M238.996375,188 C216.375685,188 198,197.324089 198,219.999404 C198,242.642066 216.375685,261 238.996375,261 C261.653316,261 280,242.642066 280,219.999404 C280,197.324089 261.653316,188 238.996375,188" id="Fill-39" fill="#231F20"></path>
        </g>
    </g>
</svg>
